www/static/img/overview/type.svg

<svg width="75" height="31" viewBox="0 0 75 31" fill="none" xmlns="http://www.w3.org/2000/svg">
<path d="M19.342 0.199998H0.0979688V2.784H8.35997V24H11.08V2.784H19.342V0.199998ZM36.0732 7.901H33.2852L27.6072 17.999L21.6062 7.901H18.7672L26.1622 20.515L20.1612 30.868H22.9662L36.0732 7.901ZM47.7298 7.578C45.0778 7.578 43.1398 8.649 41.8648 10.281V7.901H39.3148V30.8H41.8648V21.62C43.1398 23.252 45.0778 24.323 47.7298 24.323C52.2518 24.323 55.7708 20.787 55.7708 15.942C55.7708 11.114 52.2518 7.578 47.7298 7.578ZM47.4238 9.958C50.8408 9.958 53.1698 12.627 53.1698 15.942C53.1698 19.274 50.8748 21.943 47.4238 21.943C44.0578 21.943 41.6948 19.359 41.6948 15.942C41.6948 12.542 44.0578 9.958 47.4238 9.958ZM67.2644 7.578C62.6744 7.578 59.2744 11.029 59.2744 15.959C59.2744 20.94 62.6574 24.323 67.4174 24.323C69.7804 24.323 72.0244 23.728 74.0304 21.807L72.6704 20.073C71.2934 21.331 69.5594 22.096 67.5704 22.096C64.6634 22.096 62.2324 20.311 61.8754 16.843H74.7784C74.8124 16.554 74.8294 16.214 74.8294 15.891C74.7954 10.995 71.6334 7.578 67.2644 7.578ZM67.2134 9.839C69.9504 9.839 71.9224 11.777 72.2454 14.786H61.9094C62.3174 11.879 64.2384 9.839 67.2134 9.839Z" fill="#005A7A"/>
</svg>

<svg fill="none" height="31" viewBox="0 0 75 31" width="75" xmlns="http://www.w3.org/2000/svg"><path d="m19.342.199998h-19.2440312v2.584002h8.2620012v21.216h2.72003v-21.216h8.262zm16.7312 7.701002h-2.788l-5.678 10.098-6.001-10.098h-2.839l7.395 12.614-6.001 10.353h2.805zm11.6566-.323c-2.652 0-4.59 1.071-5.865 2.703v-2.38h-2.55v22.899h2.55v-9.18c1.275 1.632 3.213 2.703 5.865 2.703 4.522 0 8.041-3.536 8.041-8.381 0-4.828-3.519-8.364-8.041-8.364zm-.306 2.38c3.417 0 5.746 2.669 5.746 5.984 0 3.332-2.295 6.001-5.746 6.001-3.366 0-5.729-2.584-5.729-6.001 0-3.4 2.363-5.984 5.729-5.984zm19.8406-2.38c-4.59 0-7.99 3.451-7.99 8.381 0 4.981 3.383 8.364 8.143 8.364 2.363 0 4.607-.595 6.613-2.516l-1.36-1.734c-1.377 1.258-3.111 2.023-5.1 2.023-2.907 0-5.338-1.785-5.695-5.253h12.903c.034-.289.051-.629.051-.952-.034-4.896-3.196-8.313-7.565-8.313zm-.051 2.261c2.737 0 4.709 1.938 5.032 4.947h-10.336c.408-2.907 2.329-4.947 5.304-4.947z" fill="#005a7a"/></svg>
